X:4
T:Old Joe Clark
M:4/4
L:1/4
Z:abc-transcription Josh Larios <hades@elsewhere.org>, 2014.01.13
S:Sarah Comer
K:A mix
|: "A"efgf | e(dc2) | efgf | "E"e2e2 |
"A"efgf | edc>c | Ac"E"BB | "A"A2A2 ::
"A"A>(BA2) | edc>c | AAcA | "E"B2B2 |
"A"A>(BA) c/d/ | e(dc2) | Ac"E"BB | "A"A2A2 :|

